X:0007
T:Quick Step. 17 Regt.
M:6/8
L:1/8
Q:3/8=88
I: :| ::
%% D  E ^F  G  A  B  c  d  e ^f  g  a
Z:Jack Campin * www.campin.me.uk * 2009
K:G
D|G2B ABc|B2G FED|G2B ABc|d3 D2
D|G2B ABc|B2G FED|EFG AFD|G3 G2:|
D|G2g f2e|d2c B2A|G2g f2g|a3 d2
d|G2g f2e|dcB ABc|B2G AFD|G3 G2:|
<end>
<start>
